resources/img/logo/animation-workbench-logo.svg

<?xml version="1.0" encoding="UTF-8" standalone="no"?>
<svg
   height="260.03287"
   viewBox="0 0 710.83948 260.03287"
   width="710.83948"
   version="1.1"
   id="svg896"
   sodipodi:docname="animation-workbench.svg"
   inkscape:version="1.1.1 (3bf5ae0d25, 2021-09-20)"
   xmlns:inkscape="http://www.inkscape.org/namespaces/inkscape"
   xmlns:sodipodi="http://sodipodi.sourceforge.net/DTD/sodipodi-0.dtd"
   xmlns:xlink="http://www.w3.org/1999/xlink"
   xmlns="http://www.w3.org/2000/svg"
   xmlns:svg="http://www.w3.org/2000/svg">
  <defs
     id="defs900">
    <linearGradient
       id="linearGradient4399"
       gradientUnits="userSpaceOnUse"
       x1="200.78799"
       x2="197.17"
       xlink:href="#a"
       y1="249.007"
       y2="11.232"
       gradientTransform="rotate(134.70198,165.30471,142.0591)" />
    <linearGradient
       id="linearGradient4403">
      <stop
         offset="0"
         stop-color="#589632"
         id="stop879-6" />
      <stop
         offset="1"
         stop-color="#93b023"
         id="stop881-7" />
    </linearGradient>
    <linearGradient
       id="b-7"
       gradientUnits="userSpaceOnUse"
       x1="200.78799"
       x2="197.17"
       xlink:href="#linearGradient4403"
       y1="249.007"
       y2="11.232"
       gradientTransform="matrix(1.7123924,0,0,1.7280004,-176.16977,-176.82597)" />
  </defs>
  <sodipodi:namedview
     id="namedview898"
     pagecolor="#ffffff"
     bordercolor="#666666"
     borderopacity="1.0"
     inkscape:pageshadow="2"
     inkscape:pageopacity="0.0"
     inkscape:pagecheckerboard="0"
     showgrid="false"
     inkscape:zoom="2.0992233"
     inkscape:cx="419.20266"
     inkscape:cy="141.95727"
     inkscape:window-width="2560"
     inkscape:window-height="1002"
     inkscape:window-x="0"
     inkscape:window-y="0"
     inkscape:window-maximized="1"
     inkscape:current-layer="svg896"
     showguides="true"
     inkscape:guide-bbox="true"
     fit-margin-top="10"
     fit-margin-left="10"
     fit-margin-right="10"
     fit-margin-bottom="10"
     lock-margins="true" />
  <linearGradient
     id="a">
    <stop
       offset="0"
       stop-color="#589632"
       id="stop879" />
    <stop
       offset="1"
       stop-color="#93b023"
       id="stop881" />
  </linearGradient>
  <linearGradient
     id="b"
     gradientUnits="userSpaceOnUse"
     x1="200.78799"
     x2="197.17"
     xlink:href="#a"
     y1="249.007"
     y2="11.232"
     gradientTransform="rotate(134.70198,158.00498,140.71215)" />
  <linearGradient
     id="c"
     gradientUnits="userSpaceOnUse"
     x1="129.939"
     x2="126.351"
     xlink:href="#a"
     y1="252.718"
     y2="16.927999" />
  <path
     id="rect5744"
     style="fill:#9b9b9d;fill-opacity:1;stroke-width:6.83117;stroke-linecap:round"
     d="M 11.254434,88.028793 170.07045,248.71891 H 13.157374 Z"
     sodipodi:nodetypes="cccc" />
  <path
     id="rect5744-0"
     style="fill:#9b9b9d;fill-opacity:1;stroke-width:6.83117;stroke-linecap:round"
     d="M 248.06379,171.80289 89.890524,10.480027 246.80236,11.106449 Z"
     sodipodi:nodetypes="cccc" />
  <g
     id="g6028"
     transform="translate(2.6184244,2.1322041)">
    <path
       d="M 59.467416,59.73556 H 118.43707 L 68.527684,9.9415011 H 7.3815756 V 69.227466 L 59.467416,121.61353 Z"
       fill="#ee7913"
       id="path5534"
       style="stroke-width:1.72018" />
    <path
       d="M 248.60801,189.59306 143.39348,84.630862 H 84.131003 V 146.42589 L 184.95839,247.8284 h 63.64962 z"
       fill="url(#b)"
       id="path5536"
       style="fill:url(#b-7);stroke-width:1.72018" />
    <path
       d="M 84.131003,84.630862 H 143.39348 L 118.43707,59.73556 H 59.467416 v 61.87797 l 24.663587,24.81236 z"
       fill="#f0e64a"
       id="path5538"
       style="stroke-width:1.72018" />
    <path
       d="M 7.3815756,9.9415011 248.60801,247.8284 V 189.59306 L 143.39348,84.630862 118.43707,59.733832 68.527684,9.9415011 Z"
       fill="#ffffff"
       fill-opacity="0.172"
       id="path5542"
       style="stroke-width:1.72018" />
  </g>
  <text
     xml:space="preserve"
     style="font-style:normal;font-weight:normal;font-size:75.2541px;line-height:1.25;font-family:sans-serif;fill:#000000;fill-opacity:1;stroke:none;stroke-width:1.88135"
     x="271.4808"
     y="66.061813"
     id="text6791"
     transform="scale(1.0209165,0.97951204)"><tspan
       sodipodi:role="line"
       id="tspan6789"
       x="271.4808"
       y="66.061813"
       style="stroke-width:1.88135">QGIS</tspan><tspan
       sodipodi:role="line"
       x="271.4808"
       y="160.12944"
       id="tspan6793"
       style="stroke-width:1.88135">Animation</tspan><tspan
       sodipodi:role="line"
       x="271.4808"
       y="254.19705"
       id="tspan6795"
       style="stroke-width:1.88135">Workbench</tspan></text>
</svg>

<?xml version="1.0" encoding="UTF-8" standalone="no"?>
<svg
   width="256"
   height="256"
   version="1.1"
   viewBox="0 0 256 256"
   id="svg23"
   sodipodi:docname="animation-workbench-logo.svg"
   inkscape:version="1.1.1 (3bf5ae0d25, 2021-09-20)"
   xmlns:inkscape="http://www.inkscape.org/namespaces/inkscape"
   xmlns:sodipodi="http://sodipodi.sourceforge.net/DTD/sodipodi-0.dtd"
   xmlns="http://www.w3.org/2000/svg"
   xmlns:svg="http://www.w3.org/2000/svg">
  <sodipodi:namedview
     id="namedview25"
     pagecolor="#ffffff"
     bordercolor="#666666"
     borderopacity="1.0"
     inkscape:pageshadow="2"
     inkscape:pageopacity="0.0"
     inkscape:pagecheckerboard="0"
     showgrid="false"
     inkscape:zoom="3.1735228"
     inkscape:cx="270.67712"
     inkscape:cy="165.4313"
     inkscape:window-width="2560"
     inkscape:window-height="1002"
     inkscape:window-x="0"
     inkscape:window-y="0"
     inkscape:window-maximized="1"
     inkscape:current-layer="svg23" />
  <defs
     id="defs7">
    <linearGradient
       id="b-7"
       x1="200.79"
       x2="197.17"
       y1="249.01"
       y2="11.232"
       gradientTransform="matrix(1.7124 0 0 1.728 -176.17 -176.83)"
       gradientUnits="userSpaceOnUse">
      <stop
         stop-color="#589632"
         offset="0"
         id="stop2" />
      <stop
         stop-color="#93b023"
         offset="1"
         id="stop4" />
    </linearGradient>
  </defs>
  <path
     d="m8.636 85.897 158.82 160.69h-156.91z"
     fill="#9b9b9d"
     stroke-linecap="round"
     stroke-width="6.8312"
     id="path9" />
  <path
     d="m245.45 169.67-158.17-161.32 156.91 0.62642z"
     fill="#9b9b9d"
     stroke-linecap="round"
     stroke-width="6.8312"
     id="path11" />
  <g
     stroke-width="1.7202"
     id="g21">
    <path
       d="m59.467 59.736h58.97l-49.909-49.794h-61.146v59.286l52.086 52.386z"
       fill="#ee7913"
       id="path13" />
    <path
       d="m248.61 189.59-105.21-104.96h-59.262v61.795l100.83 101.4h63.65z"
       fill="url(#b-7)"
       id="path15" />
    <path
       d="m84.131 84.631h59.262l-24.956-24.895h-58.97v61.878l24.664 24.812z"
       fill="#f0e64a"
       id="path17" />
    <path
       d="m7.3816 9.9415 241.23 237.89v-58.235l-105.21-104.96-24.956-24.897-49.909-49.792z"
       fill="#fff"
       fill-opacity=".172"
       id="path19" />
  </g>
  <text
     xml:space="preserve"
     style="font-style:normal;font-weight:normal;font-size:40px;line-height:1.25;font-family:sans-serif;fill:#000000;fill-opacity:1;stroke:none"
     x="263.47839"
     y="19.81131"
     id="text3455"><tspan
       sodipodi:role="line"
       id="tspan3453"
       x="263.47839"
       y="19.81131">QGIS</tspan><tspan
       sodipodi:role="line"
       x="263.47839"
       y="69.81131"
       id="tspan3457">ANIMATION</tspan><tspan
       sodipodi:role="line"
       x="263.47839"
       y="119.81131"
       id="tspan3459">WORKBENCH</tspan></text>
</svg>
